_inc/images/systems/logos/auto-reflection.svg

<svg viewBox="0 0 200 40" xmlns="http://www.w3.org/2000/svg">
    <path d="M29.695 21.662c-.713.067-1.33.145-1.946.165-.18.004-.364-.165-.549-.258.151-.116.296-.31.461-.33.884-.116 1.777-.184 2.66-.281.442-.049.607.121.544.563-.116.864-.194 1.738-.33 2.597-.029.175-.238.32-.364.48-.078-.189-.233-.383-.223-.572.024-.539.106-1.078.184-1.733-.194.145-.311.218-.408.31-2.616 2.495-5.767 3.855-9.325 4.175-1.684.15-3.403-.024-5.102-.078-.184-.005-.359-.213-.539-.325.146-.136.272-.296.437-.398a5.95 5.95 0 0 1 .976-.515c.194-.072.437-.024.655-.029-.102.18-.194.36-.31.529-.049.073-.141.112-.238.18 3.81 1.063 10.946-1.296 13.417-4.48Zm-6.082-7.845c-.593.485-1.073.903-1.583 1.272-.145.107-.388.073-.587.102.068-.19.077-.447.209-.563.665-.588 1.368-1.136 2.048-1.709.325-.277.529-.219.714.155.403.816.835 1.617 1.223 2.437.068.141-.039.359-.063.544-.16-.092-.388-.146-.476-.287-.296-.49-.539-1.014-.859-1.64-.073.291-.083.48-.17.631-.063.111-.218.174-.33.257-.087-.131-.243-.252-.252-.388-.01-.219.067-.447.126-.811Zm9.364 5.34c-.374.403-.607.694-.889.932-.106.092-.325.048-.495.068.025-.17-.009-.389.088-.495.237-.277.534-.505 1.009-.932-.388-.287-.718-.491-.99-.753-.102-.097-.082-.325-.116-.495.184.019.417-.019.538.078.282.233.505.529.864.917.287-.34.5-.641.767-.883.127-.112.36-.102.544-.146-.044.199-.024.447-.136.578-.228.257-.529.446-.898.737.418.379.723.617.971.908.092.107.049.33.068.495-.17-.024-.393.01-.495-.087-.291-.257-.524-.573-.83-.922Zm-17.219 1.907c-.359.399-.602.704-.888.962-.092.082-.296.034-.451.043.004-.155-.049-.369.034-.461.267-.301.587-.553.98-.908-.354-.301-.65-.5-.869-.767-.111-.136-.092-.383-.131-.582.185.044.413.034.539.141.262.223.466.509.796.888.325-.369.558-.675.845-.927.111-.097.33-.073.5-.107-.025.184.009.417-.088.539-.237.277-.538.495-.975.883.354.267.65.432.869.67.136.151.271.51.199.597-.277.33-.466-.019-.641-.189-.233-.214-.427-.456-.719-.782Zm8.695-10.203c.383.315.699.538.966.815.097.102.063.33.092.5-.17-.019-.398.024-.5-.073-.282-.257-.51-.572-.869-.99-.34.408-.549.714-.816.956-.116.102-.354.073-.539.102.03-.17.005-.393.107-.505.238-.276.534-.5.889-.825-.345-.32-.651-.558-.889-.849-.097-.122-.048-.36-.068-.544.165.039.379.024.491.121.276.238.504.525.859.913.296-.345.51-.646.777-.883.121-.107.349-.093.529-.132-.029.185.004.418-.097.539-.224.272-.525.495-.932.855ZM10.695 28.026c.364.296.661.49.884.747.116.131.097.384.141.578-.199-.054-.437-.058-.583-.175-.248-.209-.437-.485-.748-.849-.33.368-.558.679-.844.922-.117.102-.355.058-.539.078.034-.17.015-.389.117-.5.242-.272.538-.491.893-.801-.355-.335-.651-.578-.898-.869-.097-.117-.078-.33-.112-.5.184.024.422-.015.544.082.281.228.505.529.869.927.301-.359.524-.674.801-.937.102-.097.33-.067.5-.092-.02.17.019.389-.073.5-.228.277-.525.5-.952.889Zm7.699-12.17a1.286 1.286 0 0 1 1.296 1.233 1.306 1.306 0 0 1-1.267 1.33c-.703.01-1.291-.583-1.291-1.301a1.275 1.275 0 0 1 1.262-1.262Zm.753 1.403v-.267c-.238-.17-.461-.442-.719-.486-.398-.068-.665.228-.66.631.005.403.272.694.675.612.252-.049.466-.316.704-.49Zm-8.898 6.034a1.276 1.276 0 0 1 1.228-1.297 1.301 1.301 0 0 1 1.34 1.253c.014.694-.593 1.301-1.296 1.296a1.272 1.272 0 0 1-1.272-1.252Zm1.306.893c.286-.418.558-.646.592-.908.053-.388-.228-.66-.646-.646-.412.02-.684.297-.602.69.058.257.345.466.656.864Z" style="fill:#ccc"/>
    <path d="M24.778 20.259a1.259 1.259 0 0 1 1.242 1.271 1.277 1.277 0 0 1-1.305 1.277 1.297 1.297 0 0 1-1.253-1.281c0-.699.602-1.282 1.316-1.267Zm.014.369c-.315.388-.616.592-.67.849-.082.384.18.67.598.689.417.02.703-.247.655-.636-.034-.257-.306-.49-.583-.902Zm2.748 7.538a1.276 1.276 0 0 1-1.301 1.282 1.292 1.292 0 0 1-1.257-1.272 1.28 1.28 0 0 1 1.247-1.277 1.258 1.258 0 0 1 1.311 1.267Zm-.52.102c-.004-.092-.004-.179-.009-.272-.267-.16-.52-.417-.796-.451-.374-.044-.597.267-.583.641.015.417.296.679.685.597.257-.049.47-.335.703-.515Zm2.292-10.31a1.283 1.283 0 0 1-1.287 1.296 1.29 1.29 0 0 1-1.262-1.267 1.282 1.282 0 0 1 1.291-1.296c.68.005 1.248.577 1.258 1.267Zm-1.063-.656c-.588.059-.85.248-.855.675 0 .398.238.617.612.636.383.015.689-.214.65-.583-.024-.276-.286-.529-.407-.728Zm-7.117 4.33c-.078.136-.126.272-.213.364-.826.874-1.646 1.753-2.496 2.598-.116.116-.393.082-.592.116.063-.189.068-.432.194-.563.787-.854 1.593-1.694 2.408-2.524.117-.122.306-.194.471-.238.049-.01.141.15.228.247Zm.539-.995c-.063-.344-.17-.548-.117-.684a98.013 98.013 0 0 1 1.481-3.466c.058-.131.282-.185.427-.272.049.165.175.364.126.49a123.44 123.44 0 0 1-1.441 3.418c-.059.14-.219.242-.476.514Z" style="fill:#ccc"/>
    <path d="M52.851 30.101h-6.27l-1.38-5.58h-1.23l-.96 5.58h-5.7l3.3-18.75h9c3.42 0 5.13 1.53 5.13 4.59 0 1.26-.19 2.46-.57 3.6-.7 2.16-1.8 3.6-3.3 4.32Zm-7.41-13.95-.66 3.75h1.32c.68 0 1.195-.075 1.545-.225.35-.15.59-.58.72-1.29.13-.71.195-1.145.195-1.305 0-.4-.155-.655-.465-.765-.31-.11-.815-.165-1.515-.165Zm22.469 6.87h-5.7l-.39 2.28h6.99l-.84 4.8H55.28l3.3-18.75h12.54l-1.56 4.8h-6.15l-.42 2.52h5.7Zm15.029.12h-4.86l-1.2 6.96h-5.7l3.3-18.75h11.7l-1.59 4.8h-5.28l-.42 2.52h4.86Zm13.739 6.96h-11.4l3.3-18.75h5.7l-2.46 13.95h5.7Zm14.01-7.08h-5.7l-.39 2.28h6.99l-.84 4.8h-12.69l3.3-18.75h12.54l-1.56 4.8h-6.15l-.42 2.52h5.7Zm16.169 1.71-.48 5.04c-1.28.52-2.9.78-4.86.78-2.52 0-4.325-.49-5.415-1.47-1.09-.98-1.635-2.49-1.635-4.53 0-.86.14-2.13.42-3.81.6-3.44 1.635-5.94 3.105-7.5 1.47-1.56 3.795-2.34 6.975-2.34.74 0 1.585.075 2.535.225.95.15 1.645.335 2.085.555l-1.68 4.59c-1.18-.28-2.285-.42-3.315-.42-1.03 0-1.765.1-2.205.3-.44.2-.71.6-.81 1.2l-1.38 7.86c.72.16 1.46.24 2.22.24 1.62 0 3.1-.24 4.44-.72Zm17.129-8.58h-4.14l-2.43 13.95h-5.7l2.43-13.95h-4.11l.87-4.8h13.95Zm-.271 13.95 3.3-18.75h5.7l-3.3 18.75Zm16.709-12.48-1.38 7.8h2.37c.78 0 1.36-.095 1.74-.285.38-.19.63-.625.75-1.305l1.38-7.8h-2.4c-.76 0-1.33.095-1.71.285-.38.19-.63.625-.75 1.305Zm3.45-6.72c2.54 0 4.35.495 5.43 1.485 1.08.99 1.62 2.515 1.62 4.575s-.325 4.215-.975 6.465c-.65 2.25-1.68 4-3.09 5.25s-3.47 1.875-6.18 1.875c-2.71 0-4.605-.495-5.685-1.485-1.08-.99-1.62-2.515-1.62-4.575 0-.98.14-2.275.42-3.885.28-1.61.65-3 1.11-4.17.46-1.17 1.08-2.185 1.86-3.045 1.5-1.66 3.87-2.49 7.11-2.49Zm18.449 19.2-3.06-6.66c-.08-.14-.12-.335-.12-.585 0-.25.02-.535.06-.855h-.24l-1.41 8.1h-5.7l3.3-18.75h5.37l3.06 6.66c.06.14.09.335.09.585 0 .25-.02.535-.06.855h.24l1.44-8.1h5.7l-3.3 18.75Z" style="fill:#fff;white-space:pre"/>
</svg>

<?xml version="1.0" encoding="utf-8"?>
<svg version="1.1" id="Warstwa_1" x="0px" y="0px" viewBox="0 0 200 40" xmlns="http://www.w3.org/2000/svg">
  <path d="M 29.695 21.662 C 28.982 21.729 28.365 21.807 27.749 21.827 C 27.569 21.831 27.385 21.662 27.2 21.569 C 27.351 21.453 27.496 21.259 27.661 21.239 C 28.545 21.123 29.438 21.055 30.321 20.958 C 30.763 20.909 30.928 21.079 30.865 21.521 C 30.749 22.385 30.671 23.259 30.535 24.118 C 30.506 24.293 30.297 24.438 30.171 24.598 C 30.093 24.409 29.938 24.215 29.948 24.026 C 29.972 23.487 30.054 22.948 30.132 22.293 C 29.938 22.438 29.821 22.511 29.724 22.603 C 27.108 25.098 23.957 26.458 20.399 26.778 C 18.715 26.928 16.996 26.754 15.297 26.7 C 15.113 26.695 14.938 26.487 14.758 26.375 C 14.904 26.239 15.03 26.079 15.195 25.977 C 15.506 25.783 15.831 25.594 16.171 25.462 C 16.365 25.39 16.608 25.438 16.826 25.433 C 16.724 25.613 16.632 25.793 16.516 25.962 C 16.467 26.035 16.375 26.074 16.278 26.142 C 20.088 27.205 27.224 24.846 29.695 21.662 Z" style="fill: rgb(204, 204, 204);"/>
  <path d="M 23.613 13.817 C 23.02 14.302 22.54 14.72 22.03 15.089 C 21.885 15.196 21.642 15.162 21.443 15.191 C 21.511 15.001 21.52 14.744 21.652 14.628 C 22.317 14.04 23.02 13.492 23.7 12.919 C 24.025 12.642 24.229 12.7 24.414 13.074 C 24.817 13.89 25.249 14.691 25.637 15.511 C 25.705 15.652 25.598 15.87 25.574 16.055 C 25.414 15.963 25.186 15.909 25.098 15.768 C 24.802 15.278 24.559 14.754 24.239 14.128 C 24.166 14.419 24.156 14.608 24.069 14.759 C 24.006 14.87 23.851 14.933 23.739 15.016 C 23.652 14.885 23.496 14.764 23.487 14.628 C 23.477 14.409 23.554 14.181 23.613 13.817 Z" style="fill: rgb(204, 204, 204);"/>
  <path d="M 32.977 19.157 C 32.603 19.56 32.37 19.851 32.088 20.089 C 31.982 20.181 31.763 20.137 31.593 20.157 C 31.618 19.987 31.584 19.768 31.681 19.662 C 31.918 19.385 32.215 19.157 32.69 18.73 C 32.302 18.443 31.972 18.239 31.7 17.977 C 31.598 17.88 31.618 17.652 31.584 17.482 C 31.768 17.501 32.001 17.463 32.122 17.56 C 32.404 17.793 32.627 18.089 32.986 18.477 C 33.273 18.137 33.486 17.836 33.753 17.594 C 33.88 17.482 34.113 17.492 34.297 17.448 C 34.253 17.647 34.273 17.895 34.161 18.026 C 33.933 18.283 33.632 18.472 33.263 18.763 C 33.681 19.142 33.986 19.38 34.234 19.671 C 34.326 19.778 34.283 20.001 34.302 20.166 C 34.132 20.142 33.909 20.176 33.807 20.079 C 33.516 19.822 33.283 19.506 32.977 19.157 Z" style="fill: rgb(204, 204, 204);"/>
  <path d="M 15.758 21.064 C 15.399 21.463 15.156 21.768 14.87 22.026 C 14.778 22.108 14.574 22.06 14.419 22.069 C 14.423 21.914 14.37 21.7 14.453 21.608 C 14.72 21.307 15.04 21.055 15.433 20.7 C 15.079 20.399 14.783 20.2 14.564 19.933 C 14.453 19.797 14.472 19.55 14.433 19.351 C 14.618 19.395 14.846 19.385 14.972 19.492 C 15.234 19.715 15.438 20.001 15.768 20.38 C 16.093 20.011 16.326 19.705 16.613 19.453 C 16.724 19.356 16.943 19.38 17.113 19.346 C 17.088 19.53 17.122 19.763 17.025 19.885 C 16.788 20.162 16.487 20.38 16.05 20.768 C 16.404 21.035 16.7 21.2 16.919 21.438 C 17.055 21.589 17.19 21.948 17.118 22.035 C 16.841 22.365 16.652 22.016 16.477 21.846 C 16.244 21.632 16.05 21.39 15.758 21.064 Z" style="fill: rgb(204, 204, 204);"/>
  <path d="M 24.453 10.861 C 24.836 11.176 25.152 11.399 25.419 11.676 C 25.516 11.778 25.482 12.006 25.511 12.176 C 25.341 12.157 25.113 12.2 25.011 12.103 C 24.729 11.846 24.501 11.531 24.142 11.113 C 23.802 11.521 23.593 11.827 23.326 12.069 C 23.21 12.171 22.972 12.142 22.787 12.171 C 22.817 12.001 22.792 11.778 22.894 11.666 C 23.132 11.39 23.428 11.166 23.783 10.841 C 23.438 10.521 23.132 10.283 22.894 9.992 C 22.797 9.87 22.846 9.632 22.826 9.448 C 22.991 9.487 23.205 9.472 23.317 9.569 C 23.593 9.807 23.821 10.094 24.176 10.482 C 24.472 10.137 24.686 9.836 24.953 9.599 C 25.074 9.492 25.302 9.506 25.482 9.467 C 25.453 9.652 25.486 9.885 25.385 10.006 C 25.161 10.278 24.86 10.501 24.453 10.861 Z" style="fill: rgb(204, 204, 204);"/>
  <path d="M 10.695 28.026 C 11.059 28.322 11.356 28.516 11.579 28.773 C 11.695 28.904 11.676 29.157 11.72 29.351 C 11.521 29.297 11.283 29.293 11.137 29.176 C 10.889 28.967 10.7 28.691 10.389 28.327 C 10.059 28.695 9.831 29.006 9.545 29.249 C 9.428 29.351 9.19 29.307 9.006 29.327 C 9.04 29.157 9.021 28.938 9.123 28.827 C 9.365 28.555 9.661 28.336 10.016 28.026 C 9.661 27.691 9.365 27.448 9.118 27.157 C 9.021 27.04 9.04 26.827 9.006 26.657 C 9.19 26.681 9.428 26.642 9.55 26.739 C 9.831 26.967 10.055 27.268 10.419 27.666 C 10.72 27.307 10.943 26.992 11.22 26.729 C 11.322 26.632 11.55 26.662 11.72 26.637 C 11.7 26.807 11.739 27.026 11.647 27.137 C 11.419 27.414 11.122 27.637 10.695 28.026 Z" style="fill: rgb(204, 204, 204);"/>
  <path d="M 18.394 15.856 C 19.088 15.851 19.666 16.399 19.69 17.089 C 19.715 17.793 19.127 18.409 18.423 18.419 C 17.72 18.429 17.132 17.836 17.132 17.118 C 17.137 16.424 17.7 15.865 18.394 15.856 Z M 19.147 17.259 C 19.147 17.171 19.147 17.084 19.147 16.992 C 18.909 16.822 18.686 16.55 18.428 16.506 C 18.03 16.438 17.763 16.734 17.768 17.137 C 17.773 17.54 18.04 17.831 18.443 17.749 C 18.695 17.7 18.909 17.433 19.147 17.259 Z" style="fill: rgb(204, 204, 204);"/>
  <path d="M 10.249 23.293 C 10.239 22.598 10.783 22.021 11.477 21.996 C 12.19 21.972 12.797 22.54 12.817 23.249 C 12.831 23.943 12.224 24.55 11.521 24.545 C 10.822 24.54 10.258 23.987 10.249 23.293 Z M 11.555 24.186 C 11.841 23.768 12.113 23.54 12.147 23.278 C 12.2 22.89 11.919 22.618 11.501 22.632 C 11.089 22.652 10.817 22.929 10.899 23.322 C 10.957 23.579 11.244 23.788 11.555 24.186 Z" style="fill: rgb(204, 204, 204);"/>
  <path d="M 24.778 20.259 C 25.477 20.273 26.025 20.836 26.02 21.53 C 26.016 22.254 25.428 22.822 24.715 22.807 C 24.03 22.793 23.462 22.21 23.462 21.526 C 23.462 20.827 24.064 20.244 24.778 20.259 Z M 24.792 20.628 C 24.477 21.016 24.176 21.22 24.122 21.477 C 24.04 21.861 24.302 22.147 24.72 22.166 C 25.137 22.186 25.423 21.919 25.375 21.53 C 25.341 21.273 25.069 21.04 24.792 20.628 Z" style="fill: rgb(204, 204, 204);"/>
  <path d="M 27.54 28.166 C 27.545 28.88 26.962 29.458 26.239 29.448 C 25.554 29.438 24.982 28.856 24.982 28.176 C 24.982 27.482 25.54 26.914 26.229 26.899 C 26.962 26.88 27.535 27.438 27.54 28.166 Z M 27.02 28.268 C 27.016 28.176 27.016 28.089 27.011 27.996 C 26.744 27.836 26.491 27.579 26.215 27.545 C 25.841 27.501 25.618 27.812 25.632 28.186 C 25.647 28.603 25.928 28.865 26.317 28.783 C 26.574 28.734 26.787 28.448 27.02 28.268 Z" style="fill: rgb(204, 204, 204);"/>
  <path d="M 29.312 17.958 C 29.321 18.671 28.734 19.263 28.025 19.254 C 27.336 19.244 26.773 18.676 26.763 17.987 C 26.753 17.273 27.341 16.681 28.054 16.691 C 28.734 16.696 29.302 17.268 29.312 17.958 Z M 28.249 17.302 C 27.661 17.361 27.399 17.55 27.394 17.977 C 27.394 18.375 27.632 18.594 28.006 18.613 C 28.389 18.628 28.695 18.399 28.656 18.03 C 28.632 17.754 28.37 17.501 28.249 17.302 Z" style="fill: rgb(204, 204, 204);"/>
  <path d="M 21.132 21.632 C 21.054 21.768 21.006 21.904 20.919 21.996 C 20.093 22.87 19.273 23.749 18.423 24.594 C 18.307 24.71 18.03 24.676 17.831 24.71 C 17.894 24.521 17.899 24.278 18.025 24.147 C 18.812 23.293 19.618 22.453 20.433 21.623 C 20.55 21.501 20.739 21.429 20.904 21.385 C 20.953 21.375 21.045 21.535 21.132 21.632 Z" style="fill: rgb(204, 204, 204);"/>
  <path d="M 21.671 20.637 C 21.608 20.293 21.501 20.089 21.554 19.953 C 22.025 18.788 22.52 17.632 23.035 16.487 C 23.093 16.356 23.317 16.302 23.462 16.215 C 23.511 16.38 23.637 16.579 23.588 16.705 C 23.127 17.851 22.642 18.992 22.147 20.123 C 22.088 20.263 21.928 20.365 21.671 20.637 Z" style="fill: rgb(204, 204, 204);"/>
  <path d="M 52.851 30.101 L 46.581 30.101 L 45.201 24.521 L 43.971 24.521 L 43.011 30.101 L 37.311 30.101 L 40.611 11.351 L 49.611 11.351 C 53.031 11.351 54.741 12.881 54.741 15.941 C 54.741 17.201 54.551 18.401 54.171 19.541 C 53.471 21.701 52.371 23.141 50.871 23.861 Z M 45.441 16.151 L 44.781 19.901 L 46.101 19.901 C 46.781 19.901 47.296 19.826 47.646 19.676 C 47.996 19.526 48.236 19.096 48.366 18.386 C 48.496 17.676 48.561 17.241 48.561 17.081 C 48.561 16.681 48.406 16.426 48.096 16.316 C 47.786 16.206 47.281 16.151 46.581 16.151 Z M 67.91 23.021 L 62.21 23.021 L 61.82 25.301 L 68.81 25.301 L 67.97 30.101 L 55.28 30.101 L 58.58 11.351 L 71.12 11.351 L 69.56 16.151 L 63.41 16.151 L 62.99 18.671 L 68.69 18.671 Z M 82.939 23.141 L 78.079 23.141 L 76.879 30.101 L 71.179 30.101 L 74.479 11.351 L 86.179 11.351 L 84.589 16.151 L 79.309 16.151 L 78.889 18.671 L 83.749 18.671 Z M 96.678 30.101 L 85.278 30.101 L 88.578 11.351 L 94.278 11.351 L 91.818 25.301 L 97.518 25.301 Z M 110.688 23.021 L 104.988 23.021 L 104.598 25.301 L 111.588 25.301 L 110.748 30.101 L 98.058 30.101 L 101.358 11.351 L 113.898 11.351 L 112.338 16.151 L 106.188 16.151 L 105.768 18.671 L 111.468 18.671 Z M 126.857 24.731 L 126.377 29.771 C 125.097 30.291 123.477 30.551 121.517 30.551 C 118.997 30.551 117.192 30.061 116.102 29.081 C 115.012 28.101 114.467 26.591 114.467 24.551 C 114.467 23.691 114.607 22.421 114.887 20.741 C 115.487 17.301 116.522 14.801 117.992 13.241 C 119.462 11.681 121.787 10.901 124.967 10.901 C 125.707 10.901 126.552 10.976 127.502 11.126 C 128.452 11.276 129.147 11.461 129.587 11.681 L 127.907 16.271 C 126.727 15.991 125.622 15.851 124.592 15.851 C 123.562 15.851 122.827 15.951 122.387 16.151 C 121.947 16.351 121.677 16.751 121.577 17.351 L 120.197 25.211 C 120.917 25.371 121.657 25.451 122.417 25.451 C 124.037 25.451 125.517 25.211 126.857 24.731 Z M 143.986 16.151 L 139.846 16.151 L 137.416 30.101 L 131.716 30.101 L 134.146 16.151 L 130.036 16.151 L 130.906 11.351 L 144.856 11.351 Z M 143.715 30.101 L 147.015 11.351 L 152.715 11.351 L 149.415 30.101 Z M 160.424 17.621 L 159.044 25.421 L 161.414 25.421 C 162.194 25.421 162.774 25.326 163.154 25.136 C 163.534 24.946 163.784 24.511 163.904 23.831 L 165.284 16.031 L 162.884 16.031 C 162.124 16.031 161.554 16.126 161.174 16.316 C 160.794 16.506 160.544 16.941 160.424 17.621 Z M 163.874 10.901 C 166.414 10.901 168.224 11.396 169.304 12.386 C 170.384 13.376 170.924 14.901 170.924 16.961 C 170.924 19.021 170.599 21.176 169.949 23.426 C 169.299 25.676 168.269 27.426 166.859 28.676 C 165.449 29.926 163.389 30.551 160.679 30.551 C 157.969 30.551 156.074 30.056 154.994 29.066 C 153.914 28.076 153.374 26.551 153.374 24.491 C 153.374 23.511 153.514 22.216 153.794 20.606 C 154.074 18.996 154.444 17.606 154.904 16.436 C 155.364 15.266 155.984 14.251 156.764 13.391 C 158.264 11.731 160.634 10.901 163.874 10.901 Z M 182.323 30.101 L 179.263 23.441 C 179.183 23.301 179.143 23.106 179.143 22.856 C 179.143 22.606 179.163 22.321 179.203 22.001 L 178.963 22.001 L 177.553 30.101 L 171.853 30.101 L 175.153 11.351 L 180.523 11.351 L 183.583 18.011 C 183.643 18.151 183.673 18.346 183.673 18.596 C 183.673 18.846 183.653 19.131 183.613 19.451 L 183.853 19.451 L 185.293 11.351 L 190.993 11.351 L 187.693 30.101 Z" style="fill: rgb(255, 255, 255); white-space: pre;"/>
</svg>
